X: 1
T: the Devil in the Kitchen
%T: the Prince of Wales' Jig
C: W. Ross, H.M. Piper
R: strathspey, reel
S: Barbara McOwen 9/95
B: BSFC Session Tune Book 2016 p.23
M: 4/4
L: 1/8
K: Amix
a |\
"A"e>A A/A/A e>A "D"f>d | "A"e>A A/A/A "G"g2 f<a |\
"A"e>A A/A/A e>A g>d | "G"B>G d/c/B "Em7"g2 f :|
g |\
"A"a>A A/A/A e>A A/A/A | "A"a>A A/A/A "G"g2 f<a |\
"A"a>A A/A/A e>A g>d | "G"B>G d/c/B "Em7"g2 f ||
g |\
"A"a>A A/A/A e>A A/A/A | "A"a>A A/A/A "G"g2 f<g |\
"D"a/g/f "(G)"g>e "D"f/af/ "(A)"e>c | "G"B>c d>e "Em7"g2 f |]
